images/phone.svg

<svg width="153" height="20" viewBox="0 0 153 20" fill="none" xmlns="http://www.w3.org/2000/svg">
<path d="M32.4922 13.2898H33.8295V10.5952H36.5241V9.25781H33.8295V6.56818H32.4922V9.25781H29.8026V10.5952H32.4922V13.2898ZM42.2253 15.1392C44.3034 15.1392 45.8297 13.8963 45.8248 12.206C45.8297 10.9183 45.0492 9.99361 43.6969 9.7848V9.70526C44.7608 9.43182 45.4519 8.59659 45.4469 7.45312C45.4519 5.95668 44.2239 4.67898 42.2651 4.67898C40.3958 4.67898 38.8944 5.80753 38.8446 7.46307H40.3311C40.3659 6.52841 41.2459 5.96165 42.2452 5.96165C43.2843 5.96165 43.9654 6.59304 43.9604 7.53267C43.9654 8.51705 43.1749 9.16335 42.0463 9.16335H41.1863V10.4162H42.0463C43.4583 10.4162 44.2736 11.1321 44.2736 12.1562C44.2736 13.1456 43.4135 13.8168 42.2154 13.8168C41.1117 13.8168 40.2516 13.25 40.1919 12.3452H38.6309C38.6955 14.0057 40.1671 15.1392 42.2253 15.1392ZM51.2488 15.1392C53.3269 15.1392 54.8532 13.8963 54.8482 12.206C54.8532 10.9183 54.0726 9.99361 52.7203 9.7848V9.70526C53.7843 9.43182 54.4753 8.59659 54.4703 7.45312C54.4753 5.95668 53.2473 4.67898 51.2885 4.67898C49.4192 4.67898 47.9178 5.80753 47.8681 7.46307H49.3546C49.3894 6.52841 50.2694 5.96165 51.2686 5.96165C52.3077 5.96165 52.9888 6.59304 52.9838 7.53267C52.9888 8.51705 52.1983 9.16335 51.0698 9.16335H50.2097V10.4162H51.0698C52.4817 10.4162 53.2971 11.1321 53.2971 12.1562C53.2971 13.1456 52.437 13.8168 51.2388 13.8168C50.1351 13.8168 49.275 13.25 49.2154 12.3452H47.6543C47.7189 14.0057 49.1905 15.1392 51.2488 15.1392ZM60.7756 15H62.3814L66.8111 6.1804V4.81818H60.0795V6.13565H65.2202V6.21023L60.7756 15ZM75.6058 15.1392C77.6541 15.1392 79.1158 13.6925 79.1108 11.7088C79.1158 9.74006 77.7436 8.30824 75.8892 8.30824C75.1335 8.30824 74.4325 8.59659 74.0348 8.98438H73.9751L74.2983 6.13565H78.6186V4.81818H73.0206L72.4489 9.94886L73.8558 10.1577C74.2386 9.81463 74.9247 9.58097 75.5412 9.58097C76.7493 9.59091 77.6243 10.4957 77.6243 11.7386C77.6243 12.9616 76.7741 13.8466 75.6058 13.8466C74.6214 13.8466 73.8409 13.2202 73.7614 12.3452H72.2699C72.3295 13.9659 73.7365 15.1392 75.6058 15.1392ZM84.4714 15.1392C86.5495 15.1392 88.0758 13.8963 88.0708 12.206C88.0758 10.9183 87.2953 9.99361 85.943 9.7848V9.70526C87.0069 9.43182 87.698 8.59659 87.693 7.45312C87.698 5.95668 86.47 4.67898 84.5112 4.67898C82.6419 4.67898 81.1404 5.80753 81.0907 7.46307H82.5772C82.612 6.52841 83.492 5.96165 84.4913 5.96165C85.5304 5.96165 86.2115 6.59304 86.2065 7.53267C86.2115 8.51705 85.421 9.16335 84.2924 9.16335H83.4324V10.4162H84.2924C85.7044 10.4162 86.5197 11.1321 86.5197 12.1562C86.5197 13.1456 85.6596 13.8168 84.4615 13.8168C83.3578 13.8168 82.4977 13.25 82.438 12.3452H80.877C80.9416 14.0057 82.4132 15.1392 84.4714 15.1392ZM93.4414 13.0114H98.2688V15H99.7354V13.0114H101.083V11.7088H99.7354V4.81818H97.8413L93.4414 11.7685V13.0114ZM98.2788 11.7088H95.0522V11.6293L98.1992 6.64773H98.2788V11.7088ZM102.815 15H109.517V13.6825H104.933V13.608L106.957 11.4901C108.821 9.60582 109.353 8.70597 109.353 7.56747C109.353 5.93182 108.021 4.67898 106.102 4.67898C104.197 4.67898 102.805 5.91193 102.805 7.77131H104.272C104.267 6.67756 104.973 5.96165 106.072 5.96165C107.106 5.96165 107.891 6.59801 107.891 7.61222C107.891 8.51207 107.354 9.15838 106.261 10.3168L102.815 13.8864V15ZM118.547 15.1392C120.665 15.1392 122.161 13.9361 122.171 12.2855C122.161 11.0028 121.261 9.92401 120.123 9.72017V9.66051C121.112 9.42188 121.783 8.49219 121.793 7.39347C121.783 5.83736 120.411 4.67898 118.547 4.67898C116.662 4.67898 115.29 5.83736 115.3 7.39347C115.29 8.48722 115.961 9.42188 116.971 9.66051V9.72017C115.812 9.92401 114.912 11.0028 114.922 12.2855C114.912 13.9361 116.409 15.1392 118.547 15.1392ZM118.547 13.8814C117.274 13.8814 116.469 13.2053 116.479 12.1861C116.469 11.1271 117.344 10.3714 118.547 10.3714C119.73 10.3714 120.605 11.1271 120.615 12.1861C120.605 13.2053 119.805 13.8814 118.547 13.8814ZM118.547 9.14347C117.518 9.14347 116.787 8.49219 116.797 7.52273C116.787 6.56818 117.493 5.93679 118.547 5.93679C119.581 5.93679 120.287 6.56818 120.297 7.52273C120.287 8.49219 119.561 9.14347 118.547 9.14347ZM127.507 15.1392C129.635 15.1591 131.047 13.6278 131.042 11.674C131.047 9.72514 129.63 8.32812 127.865 8.32812C126.791 8.32812 125.861 8.84517 125.339 9.70526H125.265C125.27 7.39347 126.145 6.02131 127.636 6.02131C128.615 6.02131 129.232 6.6179 129.441 7.46307H130.957C130.723 5.85227 129.456 4.67898 127.636 4.67898C125.27 4.67898 123.793 6.71236 123.793 10.2521C123.788 14.0007 125.697 15.1243 127.507 15.1392ZM127.502 13.8466C126.319 13.8466 125.453 12.8523 125.453 11.7088C125.458 10.5703 126.363 9.57599 127.537 9.57599C128.7 9.57599 129.555 10.5156 129.55 11.6939C129.555 12.897 128.665 13.8466 127.502 13.8466ZM136.558 15H143.259V13.6825H138.675V13.608L140.699 11.4901C142.563 9.60582 143.095 8.70597 143.095 7.56747C143.095 5.93182 141.763 4.67898 139.844 4.67898C137.94 4.67898 136.548 5.91193 136.548 7.77131H138.014C138.009 6.67756 138.715 5.96165 139.814 5.96165C140.848 5.96165 141.634 6.59801 141.634 7.61222C141.634 8.51207 141.097 9.15838 140.003 10.3168L136.558 13.8864V15ZM148.688 15.1392C150.766 15.1392 152.293 13.8963 152.288 12.206C152.293 10.9183 151.512 9.99361 150.16 9.7848V9.70526C151.224 9.43182 151.915 8.59659 151.91 7.45312C151.915 5.95668 150.687 4.67898 148.728 4.67898C146.859 4.67898 145.357 5.80753 145.308 7.46307H146.794C146.829 6.52841 147.709 5.96165 148.708 5.96165C149.747 5.96165 150.428 6.59304 150.423 7.53267C150.428 8.51705 149.638 9.16335 148.509 9.16335H147.649V10.4162H148.509C149.921 10.4162 150.737 11.1321 150.737 12.1562C150.737 13.1456 149.876 13.8168 148.678 13.8168C147.575 13.8168 146.714 13.25 146.655 12.3452H145.094C145.158 14.0057 146.63 15.1392 148.688 15.1392Z" fill="#A0DAE1"/>
<g clip-path="url(#clip0)">
<path d="M3.33333 3.05176e-05C1.48667 3.05176e-05 0 1.48667 0 3.33332V16.6667C0 18.5133 1.48667 20 3.33333 20H16.6667C18.5133 20 20 18.5133 20 16.6667V3.33332C20 1.48667 18.5133 3.05176e-05 16.6667 3.05176e-05H3.33333ZM10 3.74999C13.4425 3.74999 16.25 6.55747 16.25 9.99999C16.25 13.4425 13.4425 16.25 10 16.25C9.04337 16.25 8.11492 15.9997 7.25912 15.5778L3.78255 16.2305L4.42382 12.7393C4.00194 11.8843 3.75 10.9551 3.75 9.99999C3.75 6.55747 6.55747 3.74999 10 3.74999ZM10 5.31249C7.40191 5.31249 5.3125 7.40191 5.3125 9.99999C5.3125 10.8009 5.51913 11.5871 5.91146 12.2836L6.04818 12.5293L5.72917 14.2756L7.46419 13.9502L7.71159 14.0899C8.40969 14.4824 9.19791 14.6873 10 14.6873C12.5981 14.6873 14.6875 12.5979 14.6875 9.9998C14.6875 7.40172 12.5981 5.3123 10 5.3123V5.31249ZM8.12988 6.97755C8.26068 6.97897 8.35396 6.98389 8.42936 6.99649C8.50477 7.00908 8.5661 7.02957 8.61328 7.07146C8.6562 7.10925 8.6837 7.16149 8.70606 7.22102C8.77356 7.3996 8.96443 8.03895 9.12109 8.44336C9.16909 8.56745 9.15326 8.68966 9.10317 8.79496C9.05308 8.90047 8.9758 8.99371 8.89646 9.07812C8.81713 9.16285 8.73471 9.24003 8.67836 9.30775C8.62186 9.37546 8.60119 9.42959 8.60352 9.45731C8.60686 9.4929 8.63969 9.58648 8.70118 9.69011C8.76268 9.79373 8.84792 9.91184 8.93718 10.0303C9.11572 10.2671 9.31995 10.5025 9.41082 10.595C9.50327 10.6857 9.73223 10.8885 9.96908 11.067C10.0875 11.1561 10.2055 11.2364 10.3092 11.2982C10.413 11.3596 10.5096 11.3993 10.5453 11.4025C10.5732 11.4049 10.6289 11.3772 10.6966 11.3211C10.7644 11.2648 10.8367 11.1873 10.9212 11.1079C11.0058 11.0286 11.0975 10.9495 11.2028 10.8995C11.3082 10.8494 11.4352 10.8285 11.5593 10.8774C11.9637 11.0339 12.6045 11.2249 12.7832 11.2924C12.8783 11.3283 12.9443 11.3929 12.9785 11.4779C13.0126 11.5629 13.0184 11.659 13.0241 11.7953C13.0299 11.9392 13.0151 12.1583 12.8646 12.378C12.7141 12.5975 12.4345 12.8153 11.9352 12.9704C11.4144 13.1323 10.7554 12.9421 10.1302 12.6254C9.50502 12.3086 8.91245 11.8586 8.52703 11.4731C8.14162 11.0877 7.69636 10.4934 7.37958 9.86821C7.06275 9.24302 6.87276 8.58403 7.03453 8.06321C7.17992 7.59514 7.37371 7.32566 7.57652 7.16969C7.77932 7.01379 7.98751 6.97761 8.1299 6.97918L8.12988 6.97755Z" fill="white"/>
</g>
<defs>
<clipPath id="clip0">
<rect width="20" height="20" fill="white"/>
</clipPath>
</defs>
</svg>

<svg xmlns="http://www.w3.org/2000/svg" width="153" height="20" fill="none"  xmlns:v="https://vecta.io/nano"><path d="M32.492 13.3h1.337v-2.695h2.695V9.258H33.83v-2.7h-1.337v2.7h-2.7v1.337h2.7V13.3zm9.733 1.85c2.078 0 3.604-1.243 3.6-2.933.005-1.288-.776-2.212-2.128-2.42v-.08c1.064-.273 1.755-1.11 1.75-2.252.005-1.496-1.223-2.774-3.182-2.774-1.87 0-3.37 1.13-3.42 2.784h1.486c.035-.935.915-1.5 1.914-1.5 1.04 0 1.72.63 1.715 1.57.005.984-.785 1.63-1.914 1.63h-.86v1.253h.86c1.412 0 2.227.716 2.227 1.74 0 .99-.86 1.66-2.058 1.66-1.104 0-1.964-.567-2.024-1.472h-1.56c.065 1.66 1.536 2.794 3.594 2.794zm9.024 0c2.078 0 3.604-1.243 3.6-2.933.005-1.288-.776-2.212-2.128-2.42v-.08c1.064-.273 1.755-1.11 1.75-2.252.005-1.496-1.223-2.774-3.182-2.774-1.87 0-3.37 1.13-3.42 2.784h1.486c.035-.935.915-1.5 1.914-1.5 1.04 0 1.72.63 1.715 1.57.005.984-.785 1.63-1.914 1.63h-.86v1.253h.86c1.412 0 2.227.716 2.227 1.74 0 .99-.86 1.66-2.058 1.66-1.104 0-1.964-.567-2.023-1.472h-1.56c.065 1.66 1.536 2.794 3.595 2.794zm9.527-.14h1.606l4.43-8.82V4.818H60.08v1.317h5.14V6.2L60.776 15zm14.83.14c2.048 0 3.5-1.447 3.505-3.43.005-1.97-1.367-3.4-3.222-3.4-.756 0-1.457.288-1.854.676h-.06l.323-2.85h4.32V4.818H73.02l-.572 5.13 1.407.21c.383-.343 1.07-.577 1.685-.577 1.208.01 2.083.915 2.083 2.158 0 1.223-.85 2.108-2.02 2.108-.984 0-1.765-.626-1.844-1.5h-1.49c.06 1.62 1.467 2.794 3.336 2.794zm8.866 0c2.078 0 3.604-1.243 3.6-2.933.005-1.288-.776-2.212-2.128-2.42v-.08c1.064-.273 1.755-1.11 1.75-2.252.005-1.496-1.223-2.774-3.182-2.774-1.87 0-3.37 1.13-3.42 2.784h1.487c.035-.935.915-1.5 1.914-1.5 1.04 0 1.72.63 1.715 1.57.005.984-.785 1.63-1.914 1.63h-.86v1.253h.86c1.412 0 2.227.716 2.227 1.74 0 .99-.86 1.66-2.058 1.66-1.104 0-1.964-.567-2.023-1.472h-1.56c.065 1.66 1.536 2.794 3.594 2.794zm8.97-2.128h4.827V15h1.467v-1.99h1.348V11.71h-1.348v-6.89H97.84l-4.4 6.95v1.243zm4.837-1.303h-3.227v-.08L98.2 6.648h.08v5.06zm4.536 3.29h6.702v-1.318h-4.584v-.074l2.024-2.118c1.864-1.884 2.396-2.784 2.396-3.923 0-1.636-1.332-2.888-3.25-2.888-1.905 0-3.297 1.233-3.297 3.092h1.467c-.005-1.094.7-1.8 1.8-1.8 1.034 0 1.82.636 1.82 1.65 0 .9-.537 1.546-1.63 2.705l-3.446 3.57V15zm15.732.14c2.118 0 3.614-1.203 3.624-2.854-.01-1.283-.9-2.36-2.048-2.565v-.06c.99-.24 1.66-1.168 1.67-2.267-.01-1.556-1.382-2.714-3.246-2.714-1.885 0-3.257 1.158-3.247 2.714-.01 1.094.66 2.028 1.67 2.267v.06c-1.16.204-2.06 1.283-2.05 2.565-.01 1.65 1.487 2.854 3.625 2.854zm0-1.258c-1.273 0-2.078-.676-2.068-1.695-.01-1.06.865-1.815 2.068-1.815 1.183 0 2.058.756 2.068 1.815-.01 1.02-.8 1.695-2.068 1.695zm0-4.738c-1.03 0-1.76-.65-1.75-1.62-.01-.955.696-1.586 1.75-1.586 1.034 0 1.74.63 1.75 1.586-.01.97-.736 1.62-1.75 1.62zm8.96 5.996c2.128.02 3.54-1.51 3.535-3.465.005-1.95-1.412-3.346-3.177-3.346-1.074 0-2.004.517-2.526 1.377h-.074c.005-2.312.88-3.684 2.37-3.684.98 0 1.596.597 1.805 1.442h1.516c-.234-1.61-1.5-2.784-3.32-2.784-2.366 0-3.843 2.033-3.843 5.573-.005 3.75 1.904 4.872 3.714 4.887zm-.005-1.293c-1.183 0-2.05-.994-2.05-2.138s.9-2.133 2.084-2.133c1.163 0 2.018.94 2.013 2.118.005 1.203-.885 2.153-2.048 2.153zM136.558 15h6.7v-1.318h-4.584v-.074L140.7 11.5c1.864-1.884 2.396-2.784 2.396-3.923 0-1.636-1.332-2.888-3.25-2.888-1.904 0-3.296 1.233-3.296 3.092h1.466c-.005-1.094.7-1.8 1.8-1.8 1.034 0 1.82.636 1.82 1.65 0 .9-.537 1.546-1.63 2.705l-3.445 3.57V15zm12.13.14c2.078 0 3.605-1.243 3.6-2.933.005-1.288-.776-2.212-2.128-2.42v-.08c1.064-.273 1.755-1.11 1.75-2.252.005-1.496-1.223-2.774-3.182-2.774-1.87 0-3.37 1.13-3.42 2.784h1.486c.035-.935.915-1.5 1.914-1.5 1.04 0 1.72.63 1.715 1.57.005.984-.785 1.63-1.914 1.63h-.86v1.253h.86c1.412 0 2.228.716 2.228 1.74 0 .99-.86 1.66-2.06 1.66-1.103 0-1.964-.567-2.023-1.472h-1.56c.064 1.66 1.536 2.794 3.594 2.794z" fill="#a0dae1"/><g clip-path="url(#A)"><path d="M3.333 0C1.487 0 0 1.487 0 3.333v13.333C0 18.513 1.487 20 3.333 20h13.333C18.513 20 20 18.513 20 16.667V3.333C20 1.487 18.513 0 16.667 0H3.333zM10 3.75c3.443 0 6.25 2.807 6.25 6.25s-2.807 6.25-6.25 6.25c-.957 0-1.885-.25-2.74-.672l-3.477.653.64-3.49c-.422-.855-.674-1.784-.674-2.74 0-3.443 2.807-6.25 6.25-6.25zm0 1.563c-2.598 0-4.687 2.09-4.687 4.688a4.65 4.65 0 0 0 .599 2.284l.137.246-.32 1.746 1.735-.325.247.14a4.67 4.67 0 0 0 2.288.597c2.598 0 4.688-2.09 4.688-4.687S12.598 5.312 10 5.312h0zM8.13 6.978c.13.001.224.006.3.02s.137.033.184.075.07.1.093.15l.415 1.222c.048.124.032.246-.018.352s-.127.2-.207.283l-.218.23c-.056.068-.077.122-.075.15.003.036.036.13.098.233s.147.222.236.34c.18.237.383.472.474.565a6.61 6.61 0 0 0 .558.472l.34.23c.104.06.2.1.236.104.028.002.084-.025.15-.08s.14-.134.225-.213.176-.158.282-.208.232-.07.357-.022l1.224.415c.095.036.16.1.195.185s.04.18.046.317c.006.144-.01.363-.16.583s-.43.437-.93.592c-.52.162-1.18-.028-1.805-.345s-1.218-.767-1.603-1.152-.83-.98-1.147-1.605-.507-1.284-.345-1.805c.145-.468.34-.738.542-.894a.89.89 0 0 1 .553-.191v-.002z" fill="#fff"/></g><defs><clipPath id="A"><path fill="#fff" d="M0 0h20v20H0z"/></clipPath></defs></svg>
